dist/img/svg/planet.svg

<svg enable-background="new 0 0 512 512" viewBox="0 0 512 512" xmlns="http://www.w3.org/2000/svg"><path d="m460.811 102.4-59.167-22.756 30.094 113.778 65.674-22.756c-8.736-24.716-21.148-47.695-36.601-68.266z" fill="#f9b233"/><path d="m256 0 168.4 102.4h36.411c-46.704-62.177-121.059-102.4-204.811-102.4z" fill="#fbc566"/><path d="m443.733 233.244-11.994 130.844 65.674-22.756c9.435-26.691 14.587-55.408 14.587-85.332z" fill="#f9b233"/><path d="m424.4 386.844-73.142 81.159 24.208 14.449c33.559-17.741 62.703-42.71 85.345-72.852z" fill="#f9b233"/><path d="m307.2 221.867-302.074 85.333c10.849 53.444 38.354 100.831 76.852 136.533l292.036 24.27c19.337-15.953 36.375-35.716 50.386-58.403l30.094-68.267c7.759-26.692 11.994-55.41 11.994-85.333z" fill="#fbc566"/><path d="m497.413 170.667h-42.918v42.667l11.994 42.666h45.511c0-29.924-5.152-58.641-14.587-85.333z" fill="#fbc566"/><path d="m454.494 170.667-30.094-68.267c-38.402-62.177-99.537-102.4-168.4-102.4-123.851 0-227.154 87.95-250.874 204.8l302.074 51.2h159.289c0-29.924-4.236-58.641-11.995-85.333z" fill="#fcd999"/><circle cx="256" cy="51.2" fill="#fd5f6e" r="17.067"/><path d="m454.494 341.333-30.094 34.134v34.133h36.411c15.452-20.571 27.864-43.55 36.601-68.267z" fill="#fa9647"/><path d="m79.644 375.467c0 18.852 15.281 34.133 34.133 34.133h310.623c12.706-20.571 22.91-43.55 30.094-68.267h-340.716c-18.852 0-34.134 15.282-34.134 34.134z" fill="#f9b233"/><path d="m170.667 102.4c-18.852 0-34.133 15.281-34.133 34.133s15.281 34.133 34.133 34.133h283.828c-7.184-24.717-17.39-47.696-30.094-68.267h-253.734z" fill="#fbc566"/><path d="m374.014 468.003-112.568 43.913c41.123-.86 79.859-11.404 114.021-29.464v-4.585c0-3.431-.512-6.741-1.453-9.864z" fill="#fcd999"/><path d="m341.333 443.733h-259.355c45.674 42.359 106.818 68.267 174.022 68.267 1.822 0 3.633-.047 5.445-.084 37.054-1.145 71.72-13.95 101.631-35.491 3.719-2.678 7.369-5.48 10.936-8.422-4.231-14.041-17.257-24.27-32.679-24.27z" fill="#feeccc"/><path d="m256 204.8h-250.874c-3.359 16.543-5.126 33.666-5.126 51.2s1.767 34.657 5.126 51.2h250.874c28.277 0 51.2-22.923 51.2-51.2s-22.923-51.2-51.2-51.2z" fill="#f9b233"/><circle cx="469.333" cy="256" fill="#fb7a5b" r="8.533"/><circle cx="81.249" cy="133.632" fill="#f9b233" r="8.533"/><circle cx="435.2" cy="290.133" fill="#fa9647" r="8.533"/></svg>

<?xml version="1.0" encoding="windows-1252"?>
<!-- Generator: Adobe Illustrator 19.0.0, SVG Export Plug-In . SVG Version: 6.00 Build 0)  -->
<svg version="1.1" id="Layer_1" xmlns="http://www.w3.org/2000/svg" xmlns:xlink="http://www.w3.org/1999/xlink" x="0px" y="0px" viewBox="0 0 512 512" style="enable-background:new 0 0 512 512;" xml:space="preserve">
<path style="fill:#F9B233;" d="M460.811,102.4l-59.167-22.756l30.094,113.778l65.674-22.756  C488.676,145.95,476.264,122.971,460.811,102.4z"/>
<path style="fill:#FBC566;" d="M256,0l168.4,102.4h36.411C414.107,40.223,339.752,0,256,0z"/>
<g>
	<path style="fill:#F9B233;" d="M443.733,233.244l-11.994,130.844l65.674-22.756C506.848,314.641,512,285.924,512,256   L443.733,233.244z"/>
	<path style="fill:#F9B233;" d="M424.4,386.844l-73.142,81.159l24.208,14.449c33.559-17.741,62.703-42.71,85.345-72.852   L424.4,386.844z"/>
</g>
<g>
	<path style="fill:#FBC566;" d="M307.2,221.867L5.126,307.2c10.849,53.444,38.354,100.831,76.852,136.533l292.036,24.27   c19.337-15.953,36.375-35.716,50.386-58.403l30.094-68.267c7.759-26.692,11.994-55.41,11.994-85.333L307.2,221.867z"/>
	<path style="fill:#FBC566;" d="M497.413,170.667h-42.918v42.667L466.489,256H512C512,226.076,506.848,197.359,497.413,170.667z"/>
</g>
<path style="fill:#FCD999;" d="M454.494,170.667L424.4,102.4C385.998,40.223,324.863,0,256,0C132.149,0,28.846,87.95,5.126,204.8  L307.2,256h159.289C466.489,226.076,462.253,197.359,454.494,170.667z"/>
<circle style="fill:#FD5F6E;" cx="256" cy="51.2" r="17.067"/>
<path style="fill:#FA9647;" d="M454.494,341.333L424.4,375.467V409.6h36.411c15.452-20.571,27.864-43.55,36.601-68.267H454.494z"/>
<path style="fill:#F9B233;" d="M79.644,375.467c0,18.852,15.281,34.133,34.133,34.133H424.4  c12.706-20.571,22.91-43.55,30.094-68.267H113.778C94.926,341.333,79.644,356.615,79.644,375.467z"/>
<path style="fill:#FBC566;" d="M170.667,102.4c-18.852,0-34.133,15.281-34.133,34.133s15.281,34.133,34.133,34.133h283.828  c-7.184-24.717-17.39-47.696-30.094-68.267H170.667z"/>
<path style="fill:#FCD999;" d="M374.014,468.003l-112.568,43.913c41.123-0.86,79.859-11.404,114.021-29.464v-4.585  C375.467,474.436,374.955,471.126,374.014,468.003z"/>
<path style="fill:#FEECCC;" d="M341.333,443.733H81.978C127.652,486.092,188.796,512,256,512c1.822,0,3.633-0.047,5.445-0.084  c37.054-1.145,71.72-13.95,101.631-35.491c3.719-2.678,7.369-5.48,10.936-8.422C369.781,453.962,356.755,443.733,341.333,443.733z"/>
<path style="fill:#F9B233;" d="M256,204.8H5.126C1.767,221.343,0,238.466,0,256s1.767,34.657,5.126,51.2H256  c28.277,0,51.2-22.923,51.2-51.2S284.277,204.8,256,204.8z"/>
<circle style="fill:#FB7A5B;" cx="469.333" cy="256" r="8.533"/>
<circle style="fill:#F9B233;" cx="81.249" cy="133.632" r="8.533"/>
<circle style="fill:#FA9647;" cx="435.2" cy="290.133" r="8.533"/>
<g>
</g>
<g>
</g>
<g>
</g>
<g>
</g>
<g>
</g>
<g>
</g>
<g>
</g>
<g>
</g>
<g>
</g>
<g>
</g>
<g>
</g>
<g>
</g>
<g>
</g>
<g>
</g>
<g>
</g>
</svg>
